X: 11072
T: Duchess Of Yell, The
R: three-two
M: 3/2
K: Dmajor
|:A3A GFD2 D4|A3A GAAG ABde|edef A3A GFGA|
GFD2 D3A BDDF|EDEF GFED EFD2:|
GFED ADDA AAD2|EDEA GFED EFDA|BDEF DEFA GFED|
AD D2 BD D2 ABde|fdBe dAAF GABc|deBA GFED ADDA|
AAD2 EDEA GFED|EFDA BDEF DEFA|GFED AD D2 BD D2|
ABde fdBe dAAF|M:4/4
GABc defe||

